paymentMethods/postFinance.svg

<svg width="128" height="64" viewBox="0 0 128 64" fill="none" xmlns="http://www.w3.org/2000/svg">
<rect width="128" height="64" rx="6" fill="#FFCC00"/>
<path d="M104.008 41.7553L105.208 36.0576H7.20058L6 41.7553H104.008Z" fill="white"/>
<path d="M115.814 28.3251C115.814 28.3251 117.129 22.3018 117.145 22.2449H108.794C108.794 22.2815 107.068 30.2419 107.068 30.2786H109.209L110.519 24.2553H114.589C114.589 24.2553 113.315 30.2786 113.279 30.3193H119.452L118.638 34.0349H112.489C112.489 34.0716 111.268 39.7 111.268 39.7H106.616C106.616 39.7 106.209 41.7349 106.185 41.7349H113.014L114.235 36.0372H120.372C120.372 36.0372 122 28.3047 122 28.2844H115.814" fill="#ED1C24"/>
<path d="M100.699 30.0914C101.582 30.0914 102.184 30.6937 102.184 31.6867C102.184 31.8495 102.172 32.0123 102.148 32.1751H98.3345C98.7293 30.9176 99.5758 30.0914 100.699 30.0914ZM102.596 37.5634L103.084 35.3292C102.231 35.651 101.329 35.8217 100.418 35.8338C99.2176 35.8338 98.1677 35.4268 98.1107 33.978H104.305C104.528 33.2859 104.647 32.5645 104.659 31.8373C104.659 29.774 103.458 28.085 100.886 28.085C97.549 28.085 95.5223 30.8239 95.5223 33.8478C95.5223 36.4361 97.2479 37.9582 99.9299 37.9582C100.834 37.9616 101.733 37.8243 102.596 37.5512V37.5634ZM92.4212 35.6669C91.2002 35.6669 90.3863 35.1419 90.3863 33.6321C90.3863 31.8495 91.5136 30.3763 93.2962 30.3763C93.9287 30.4014 94.5516 30.5392 95.1357 30.7833L95.5874 28.6466C94.805 28.3586 93.9793 28.2059 93.1456 28.1949C90.1991 28.1949 87.684 30.3885 87.684 33.7704C87.684 36.546 89.3892 37.8402 91.8473 37.8402C92.5423 37.8521 93.2331 37.7305 93.8822 37.4821L94.3665 35.2885C93.7569 35.5282 93.1087 35.655 92.4537 35.6629L92.4212 35.6669ZM79.459 37.6855L80.4887 32.9402C80.8956 31.0234 81.8398 30.3681 82.8166 30.3681C84.0741 30.3681 84.2247 31.3082 83.9805 32.3745L82.8532 37.6652H85.5392L86.7195 32.2239C87.3014 29.5013 86.0439 28.0769 84.0741 28.0769C83.498 28.0798 82.9291 28.2051 82.4051 28.4443C81.881 28.6836 81.4137 29.0313 81.034 29.4647L81.2782 28.3577H78.7834L76.7486 37.6855H79.459ZM69.8097 35.0036C69.8097 34.0635 70.6236 33.5385 72.0073 33.5385C72.4575 33.5377 72.9073 33.5636 73.3544 33.6158L73.2405 34.1408C73.1138 34.6583 72.8213 35.1202 72.4076 35.456C71.9939 35.7918 71.4817 35.9831 70.9492 36.0007C70.18 36.0007 69.7852 35.6262 69.7852 34.9873L69.8097 35.0036ZM72.4021 28.1542C71.4186 28.163 70.4404 28.2998 69.4922 28.5612L69.0405 30.7222C69.9652 30.4378 70.9227 30.2736 71.8893 30.2338C73.2934 30.2338 73.8021 30.6652 73.8021 31.3978C73.8062 31.5344 73.7939 31.6711 73.7654 31.8048L73.7248 31.996C73.0532 31.9187 72.4143 31.8658 72.0969 31.8658C69.4312 31.8658 67.2946 32.8954 67.2946 35.3373C67.2946 36.9286 68.5155 37.889 70.1434 37.889C70.6648 37.9011 71.1825 37.7979 71.6594 37.5868C72.1364 37.3758 72.5609 37.0621 72.9027 36.6681L72.6788 37.6855H75.0637L76.2276 32.3582C76.3178 31.9576 76.3615 31.5479 76.3579 31.1373C76.3579 29.542 75.4788 28.1338 72.3817 28.1338L72.4021 28.1542ZM59.3748 37.6855L60.4085 32.9402C60.8155 31.0234 61.7597 30.3681 62.7364 30.3681C63.994 30.3681 64.1405 31.3082 63.9004 32.3745L62.7731 37.6855H65.455L66.6393 32.2321C67.2213 29.5094 65.9637 28.085 63.994 28.085C63.4175 28.0895 62.8485 28.2154 62.324 28.4545C61.7995 28.6936 61.3312 29.0406 60.9498 29.4728L61.194 28.3658H58.7033L56.6888 37.6855H59.3748ZM54.5725 25.8059C54.5373 26.1657 54.6459 26.5248 54.8747 26.8047C55.1035 27.0846 55.4338 27.2625 55.7934 27.2995C55.8476 27.3036 55.902 27.3036 55.9562 27.2995C56.3701 27.3118 56.7722 27.1614 57.0765 26.8807C57.3808 26.6 57.563 26.2113 57.5841 25.7978C57.6194 25.4376 57.5109 25.078 57.2822 24.7975C57.0535 24.5169 56.7232 24.3382 56.3632 24.3001H56.2086C55.7927 24.2858 55.3879 24.4357 55.0817 24.7175C54.7755 24.9993 54.5926 25.3903 54.5725 25.8059ZM54.194 28.378L52.1917 37.6855H54.8574L56.8638 28.378H54.194ZM46.6121 37.6855L47.6621 32.8018H51.7318L52.2202 30.417H48.183L48.8016 27.4338H53.0626L53.5754 25.0693H46.5388L43.8732 37.6855H46.6121ZM43.9668 30.4251L44.3982 28.3902H41.5493L42.111 25.8019L39.315 26.4205L37.5406 34.3524C37.0523 36.6071 38.2895 37.8443 40.5441 37.8443C41.1607 37.8365 41.7731 37.7419 42.3633 37.5634L42.815 35.5286C42.325 35.6622 41.8209 35.7373 41.3133 35.7524C40.5441 35.7524 39.9988 35.4919 40.186 34.5315L41.0691 30.4048L43.9668 30.4251ZM33.7924 34.9466C33.7924 35.6995 32.8726 35.8297 32.1034 35.8297C31.2046 35.8062 30.3138 35.6541 29.4581 35.378L28.9942 37.4698C29.952 37.7062 30.9338 37.8318 31.9203 37.8443C34.3215 37.8443 36.2749 36.9408 36.2749 34.6902C36.2749 31.7803 32.7831 32.2891 32.7831 30.9949C32.7831 30.4129 33.3488 30.2053 34.2279 30.2053C35.0571 30.2561 35.8772 30.4078 36.6697 30.6571L37.1337 28.5367C36.2769 28.3021 35.3929 28.1817 34.5046 28.1786C31.8959 28.1786 30.3209 29.3426 30.3209 31.2757C30.3209 34.1245 33.8127 33.6402 33.8127 34.9385L33.7924 34.9466ZM23.7035 37.9582C26.65 37.9582 28.636 35.8175 29.0878 33.0216C29.5395 30.2257 28.0011 28.085 25.0546 28.085C22.1081 28.085 20.114 30.2257 19.6622 33.0216C19.2105 35.8175 20.7529 37.9582 23.7035 37.9582ZM23.9477 35.7972C22.8773 35.7972 22.0308 34.9547 22.4256 33.0216C22.8204 31.0885 23.7605 30.242 24.8267 30.242C25.893 30.242 26.7436 31.1048 26.3285 33.0216C25.9134 34.9385 25.018 35.7972 23.9477 35.7972ZM12.6256 33.8274H13.8099C17.5989 33.8274 19.6826 31.9879 19.6826 28.8745C19.6826 26.5629 18.0547 25.0612 15.2506 25.0612H11.7629L9.09717 37.6855H11.7995L12.6256 33.8274ZM13.0937 31.5199L13.9768 27.3728H15.1041C16.325 27.3728 16.9396 27.8775 16.9396 29.0617C16.9396 30.5798 15.9832 31.5036 14.221 31.5036H13.0937" fill="#231F20"/>
</svg>

<svg xmlns="http://www.w3.org/2000/svg" width="128" height="64" fill="none"><rect width="128" height="64" fill="#FC0" rx="6"/><path fill="#fff" d="m104.008 41.755 1.2-5.697H7.201L6 41.755h98.008Z"/><path fill="#ED1C24" d="M115.814 28.325s1.315-6.023 1.331-6.08h-8.351c0 .037-1.726 7.997-1.726 8.034h2.141l1.31-6.024h4.07s-1.274 6.024-1.31 6.064h6.173l-.814 3.716h-6.149c0 .037-1.221 5.665-1.221 5.665h-4.652s-.407 2.035-.431 2.035h6.829l1.221-5.698h6.137S122 28.305 122 28.284h-6.186"/><path fill="#231F20" d="M100.699 30.091c.883 0 1.485.603 1.485 1.596 0 .162-.012.325-.036.488h-3.813c.394-1.257 1.24-2.084 2.364-2.084Zm1.897 7.472.488-2.234a7.848 7.848 0 0 1-2.666.505c-1.2 0-2.25-.407-2.307-1.856h6.194a7.377 7.377 0 0 0 .354-2.14c0-2.064-1.201-3.753-3.773-3.753-3.337 0-5.364 2.739-5.364 5.763 0 2.588 1.726 4.11 4.408 4.11a8.726 8.726 0 0 0 2.666-.407v.012Zm-10.175-1.896c-1.22 0-2.035-.525-2.035-2.035 0-1.782 1.128-3.256 2.91-3.256a5.317 5.317 0 0 1 1.84.407l.451-2.136a7.35 7.35 0 0 0-2.441-.452c-2.947 0-5.462 2.194-5.462 5.575 0 2.776 1.705 4.07 4.163 4.07a5.433 5.433 0 0 0 2.035-.358l.484-2.194c-.61.24-1.257.367-1.912.375l-.033.004ZM79.46 37.685l1.03-4.745c.407-1.917 1.35-2.572 2.328-2.572 1.257 0 1.408.94 1.164 2.006l-1.128 5.291h2.686l1.18-5.441c.582-2.723-.675-4.147-2.645-4.147a4.069 4.069 0 0 0-3.04 1.388l.244-1.107h-2.495l-2.034 9.327h2.71Zm-9.65-2.681c0-.94.815-1.465 2.198-1.465.45-.001.9.025 1.347.077l-.114.525A2.442 2.442 0 0 1 70.95 36c-.77 0-1.165-.375-1.165-1.014l.025.017Zm2.593-6.85a11.33 11.33 0 0 0-2.91.407l-.452 2.161a11.268 11.268 0 0 1 2.85-.488c1.403 0 1.912.431 1.912 1.164.004.136-.008.273-.037.407l-.04.191c-.672-.077-1.31-.13-1.628-.13-2.666 0-4.802 1.03-4.802 3.471 0 1.592 1.22 2.552 2.848 2.552a3.542 3.542 0 0 0 2.76-1.22l-.224 1.017h2.385l1.164-5.328c.09-.4.134-.81.13-1.22 0-1.596-.88-3.004-3.976-3.004l.02.02Zm-13.027 9.531 1.033-4.745c.407-1.917 1.352-2.572 2.328-2.572 1.258 0 1.405.94 1.164 2.006l-1.127 5.311h2.682l1.184-5.453c.582-2.723-.675-4.147-2.645-4.147a4.103 4.103 0 0 0-3.044 1.388l.244-1.107h-2.49l-2.015 9.32h2.686Zm-4.803-11.88a1.368 1.368 0 0 0 1.221 1.494c.055.005.109.005.163 0a1.583 1.583 0 0 0 1.628-1.501 1.371 1.371 0 0 0-1.22-1.498h-.155a1.584 1.584 0 0 0-1.637 1.506Zm-.378 2.573-2.002 9.307h2.665l2.007-9.307h-2.67Zm-7.582 9.307 1.05-4.883h4.07l.488-2.385h-4.037l.619-2.983h4.26l.513-2.365H46.54l-2.666 12.616h2.74Zm-2.645-7.26.431-2.035H41.55l.562-2.588-2.796.619-1.774 7.931c-.489 2.255.748 3.492 3.003 3.492a6.571 6.571 0 0 0 1.82-.28l.451-2.035c-.49.133-.994.208-1.502.223-.769 0-1.314-.26-1.127-1.22l.883-4.127 2.898.02Zm-10.175 4.522c0 .752-.92.883-1.689.883a9.416 9.416 0 0 1-2.645-.452l-.464 2.092c.958.236 1.94.362 2.926.374 2.401 0 4.355-.903 4.355-3.154 0-2.91-3.492-2.4-3.492-3.695 0-.582.566-.79 1.445-.79.83.051 1.65.203 2.442.452l.464-2.12a10.089 10.089 0 0 0-2.63-.358c-2.608 0-4.183 1.164-4.183 3.097 0 2.848 3.492 2.364 3.492 3.662l-.02.009Zm-10.089 3.011c2.947 0 4.933-2.14 5.385-4.936.451-2.796-1.087-4.937-4.033-4.937-2.947 0-4.941 2.14-5.393 4.937-.451 2.796 1.09 4.936 4.041 4.936Zm.245-2.16c-1.07 0-1.917-.843-1.522-2.776.394-1.933 1.335-2.78 2.4-2.78 1.067 0 1.918.863 1.502 2.78-.415 1.916-1.31 2.775-2.38 2.775Zm-11.322-1.97h1.184c3.789 0 5.873-1.84 5.873-4.954 0-2.311-1.628-3.813-4.432-3.813h-3.488L9.097 37.685H11.8l.826-3.858Zm.468-2.308.883-4.147h1.127c1.221 0 1.836.505 1.836 1.689 0 1.518-.957 2.442-2.719 2.442h-1.127"/></svg>
